X:1
T:12 große Etüden
T:für Pianoforte.
T:4.
T:Mazeppa
T:Franz Liszt.
%%score { ( 1 2 ) | ( 3 4 ) }
L:1/8
Q:1/4=100
M:6/4
K:F
V:1 treble nm="Piano" snm="Pno."
V:2 treble 
V:3 bass 
V:4 bass 
V:1
"^tenuto e ben marcato il canto""^Allegro patetico"!f! [dfd']6[Q:1/4=120][Q:1/4=100]!f! [dfd']4-[Q:1/4=120] (3:2:2[dfd']2[Q:1/4=150][Q:1/4=150] [cc'] | %1
!ff![Q:1/4=100] [Beb]6[Q:1/4=120]!ff![Q:1/4=100] [Beb]4-[Q:1/4=120] (3:2:2[Beb]2!f![Q:1/4=150]!f![Q:1/4=150] [Bb] | %2
!ff![Q:1/4=100] [Aea]4-[Q:1/4=120] (3:2:2[Aea]2 [Aa]!ff![Q:1/4=100] [ege']4-[Q:1/4=120] (3:2:2[ege']2[Q:1/4=150][Q:1/4=150] [Gg] | %3
!ff![Q:1/4=100] [FAf-]4[Q:1/4=120] (3:2:2f2 [Aa]!ff![Q:1/4=100] [DFd]4[Q:1/4=120] z2[Q:1/4=150][Q:1/4=150] | %4
!ff![Q:1/4=100] [cec']6[Q:1/4=120][Q:1/4=100] [cgc']4-[Q:1/4=120] (3:2:2[cgc']2[Q:1/4=150][Q:1/4=150] [Bb] | %5
[Q:1/4=100] [Ag-a-]4[Q:1/4=120] (3:2:2[cga]2 [cc']!ff![Q:1/4=100] [Fcf]4[Q:1/4=120] (3z[Q:1/4=150][Q:1/4=150] z [Aa] | %6
[Q:1/4=100] [e^ge']6[Q:1/4=120][Q:1/4=100] [e=be']4-[Q:1/4=120] (3:2:2[ebe']2[Q:1/4=150][Q:1/4=150] [dd'] | %7
[Q:1/4=100] [^c=b-^c'-]4[Q:1/4=120] (3:2:2[ebc']2 [ee'][Q:1/4=100] [Aea]4[Q:1/4=120] (3z[Q:1/4=150][Q:1/4=150] z [Aa] | %8
!ff![Q:1/4=100] !^![g^c'e'g']6[Q:1/4=120]!ff![Q:1/4=100] [Aa]4-[Q:1/4=120] (3:2:2[Aa]2[Q:1/4=150][Q:1/4=150] [Aa] | %9
!ff![Q:1/4=100] !^![^fc'_e'^f']6[Q:1/4=120]!ff![Q:1/4=100] [Aa]4-[Q:1/4=120] (3:2:2[Aa]2[Q:1/4=150][Q:1/4=150] [Aa] | %10
!ff![Q:1/4=100] [f^g-d'-f'-]4[Q:1/4=120] (3:2:2[gd'f']2 [ff']!ff![Q:1/4=100] [ege']4-[Q:1/4=120] (3:2:2[ege']2[Q:1/4=150][Q:1/4=150] [dd'] | %11
!ff![Q:1/4=100] [^c=b-^c'-]4[Q:1/4=120] (3:2:2[ebc']2 [ee']!ff![Q:1/4=100] [Aea]2 z2[Q:1/4=120] (3z[Q:1/4=150][Q:1/4=150] z [A,A] | %12
!ff![Q:1/4=100] !^![G^ceg]6[Q:1/4=120]!ff![Q:1/4=100] [A,A]4-[Q:1/4=120] (3:2:2[A,A]2[Q:1/4=150][Q:1/4=150] [A,A] | %13
!ff![Q:1/4=100] !^![^Fc_e^f]6[Q:1/4=120]!ff![Q:1/4=100] [A,A]4-[Q:1/4=120] (3:2:2[A,A]2[Q:1/4=150][Q:1/4=150] [A,A] | %14
!ff![Q:1/4=100] [F^G-d-f-]4[Q:1/4=120] (3:2:2[Gdf]2 [Ff]!ff![Q:1/4=100] [EGde]4-[Q:1/4=120] (3:2:2[EGde]2[Q:1/4=150][Q:1/4=150] [Dd] | %15
[Q:1/4=150]!ff! [A,^CA] z[Q:1/4=160] !>!^c2 !>!e2 !>!g2 !>!b2!ff! !^!=b2 | %16
!f!!8va(! !^![e'a'^c''e''] z !>!^c'2 !>!e'2 !>!g'2 !>!b'2!ff! !^!=b'2 | %17
!f![Q:1/4=170] !arpeggio!!^![e'a'^c''e''] z"_sempre più forte ed animato"[Q:1/4=160]!<(! !>!=b'2[Q:1/4=170] [e'a'c''e''] z[Q:1/4=160] !>!b'2[Q:1/4=170] [e'a'c''e'']!<)! z[Q:1/4=160]!ff! !>!b'2 | %18
[Q:1/4=130] [e'a'^c''e'']!8va)! z"^ten."[Q:1/4=80]!f! (3:2:2!^!!fermata![Bb]2[Q:1/4=130] [Aa] (3[Gg][Ff][Ee] (3[Dd][^C^c][Ee] (3[=C=c][Ee][=B,=B] (3[Ee][_B,_B][Ee] | %19
!ff! [A,A] z[Q:1/4=80]!f! (3:2:2!^!!fermata![^c^c']2[Q:1/4=130] [Bb] (3[Aa][Gg][Ff] (3[Ee][Gg][_E_e] (3[Gg][Dd][Gg] (3[^Cc][Gg][B,B] | %20
!ff! [Gg][Q:1/4=60][A,A][Q:1/4=80]!f! (3:2:2!^![ee']2[Q:1/4=130]!<(! [dd'] (3[^c^c'][Bb]!<)![Aa][Q:1/4=100]!ff!!8va(! (3[gg'][Q:1/4=130][ff'][ee']!f! (3[dd']!<(![cc'][Q:1/4=100][bb'][Q:1/4=130] (3[aa'][gg'][ff']!<)! | %21
"_il più forte possibile"!ff! (3[ee'][Q:1/4=100][e'e''][d'd''][Q:1/4=130] (3[^c'^c''][bb'][aa'] (3[bb'][gg'][bb'](3[ff'][gg'][ee'] (3[gg'][dd'][gg']!8va)! (3[^cc'][ee'][Bb] | %22
 (3[^c^c'][Aa][Bb] (3[Gg][Bb][Ff] (3[Gg][Ee][Gg] (3[Dd][Ee][!courtesy!^Cc] (3[Ee][B,B][Cc] (3AB^G | %23
[Q:1/4=125] (3A=GA[Q:1/4=120] (3^FA=F[Q:1/4=110] (3AEA"^poco rallent."[Q:1/4=100] _E[Q:1/4=75]A[Q:1/4=90] C[Q:1/4=70]A[Q:1/4=80] ^C[Q:1/4=40]A || %24
[M:4/4][Q:1/4=110] [dfd']4 [dfd']2 x x/ [cc']/ | [Beb]4 [Beb]2 x x/ [Bb]/ | %26
 [Aea]2 x x/ [Aa]/ [ee']2 x x/ [Gg]/ | [FAf]2 x x/ [Aa]/ [DFd]2 x x/ x/ | %28
 [cec']4 [cgc']2 x x/ [Bb]/ | [_Ag_a]2 x x/ [cc']/ [FAf]2 x x/ x/ | %30
 [_eg_e']4 [ebe']2 x x/ [_d_d']/ | [cbc']2 x x/ [_e_e']/ [_Ac!courtesy!_a]2 x x/ x/ | %32
 [f=bf']4 [fbf']2 x x/ [fbf']/ | [_ac'_a']4 [_ea_e']4 | [f=bf']4 [fbf']2 x x/ [fbf']/ | %35
 [_ac'_a']4 [^g=bd'f'^g']4 | [aa']2 [ff']2 [dd']2 [Aa]2 | [Bb]2 [Gg]2 [Ee]2 [Aa]2 | %38
[Q:1/4=80] (3!wedge![DFd][Q:1/4=130]!f! [DF][EG] (3[FA] [df][eg] (3[fa] [d'f'][e'g'] (3!^![f'a']!ff! z[Q:1/4=100] [Dd] | %39
"^ten."[Q:1/4=80] [cd^fc']4[Q:1/4=130] x4[Q:1/4=100] | %40
"^ten."[Q:1/4=80] [=Bdf=b]4[Q:1/4=130] x4[Q:1/4=100] | %41
[Q:1/4=130] !^![B^ceb]2 x x/ [Bb]/ !^![Aca]2 x x/[Q:1/4=80] [Gg]/ | %42
 !wedge!!^![d^fd']2[Q:1/4=130] x2 x4[Q:1/4=100] |[Q:1/4=80] [c^fac']4[Q:1/4=130] x4[Q:1/4=100] | %44
[Q:1/4=80] [=B=f^g=b]4[Q:1/4=130] x4[Q:1/4=100] | %45
[Q:1/4=130] !wedge![_B_b]2 x x/ [Bb]/ !wedge![Aa]2 x x/ [Gg]/ | %46
[Q:1/4=160] [D^Fd]2!8va(! x2 g'2 e'2!8va)! | ^c'2 b2 a2 e2 | [d^fd']2 b2 g2 e2 | ^c2 B2 A2 E2 | %50
[Q:1/4=170] !wedge![D^Fd] z[Q:1/4=160] e2[Q:1/4=170] !wedge![FAd^f] z[Q:1/4=160] b2 | %51
[Q:1/4=170] !wedge![d^fd'] z[Q:1/4=160]!8va(! e'2[Q:1/4=170] !wedge![fb^f'] z[Q:1/4=160] b'2 | %52
[Q:1/4=170] !wedge![d'^f'd''] z[Q:1/4=160] b'2 !wedge![d'f'd''] z[Q:1/4=160] b'2 | %53
[Q:1/4=180] !wedge![d'^f'd'']!8va)! z (3z[Q:1/4=155]"_dim." [dd'][dd'] !wedge![dd']2 (3z[Q:1/4=148] [Dd][Dd] | %54
 !wedge![Dd]2 (3z[Q:1/4=139] DD D2[Q:1/4=130] D2 | D2[Q:1/4=125] D2[Q:1/4=100] D2[Q:1/4=80] D2 || %56
[K:Bb]!p![Q:1/4=100]"^Un poco animato il tempo.""^leggiero" (3z [DB]"_dolce ma ben marcato ed espressivo il canto"[Fc] (3[Bd] [db][fc'][Q:1/4=90] (3[bd'][Q:1/4=95]!8va(! [d'b'][f'c''] (3[b'd''][b'd''][b'd'']!8va)! | %57
[Q:1/4=100] (3z [DB][Fc] (3[Bd] [db][fc'][Q:1/4=90] (3[bd'][Q:1/4=95]!8va(! [d'b'][f'c''] (3[b'd''][b'd''][b'd'']!8va)! | %58
[Q:1/4=100] (3z [Ec][_Gd] (3[ce] [ec'][_gd'][Q:1/4=90] (3[c'e'][Q:1/4=95]!8va(! [e'c''][_g'd''] (3[c''e''][c''e''][c''e'']!8va)! | %59
[Q:1/4=100] (3z [DB][Fc] (3[Bd] [db][fc'][Q:1/4=90] (3[bd']!8va(! [d'b'][Q:1/4=95][f'c''] (3[b'd''][b'd''][b'd'']!8va)! | %60
[Q:1/4=100] (3z [GB][Ac] (3[Bd] [gb][ac'][Q:1/4=90] (3[bd'][Q:1/4=95]!8va(! [g'b'][a'c''] (3[b'd''][b'd''][b'd'']!8va)! | %61
[Q:1/4=100] (3z [DB][Gc] (3[Bd] [db][gc'][Q:1/4=90] (3[bd'][Q:1/4=95]!8va(! [d'b'][g'c''] (3[b'd''][b'd''][b'd'']!8va)! | %62
[Q:1/4=100] (3z [=EB][Gc] (3[B=e] [eb][gc'][Q:1/4=90] (3[b=e'][Q:1/4=95]!8va(! [e'b'][g'c''] (3[b'=e''][b'e''][c''e'']!8va)! | %63
[Q:1/4=100] (3z A[Fc] (3[Af] a[fc'][Q:1/4=90] (3[af'][Q:1/4=95]!8va(! a'[f'c''] (3[a'c''f''][a'c''f''][a'c''f'']!8va)! | %64
[Q:1/4=100] (3z [F_d][_Ae] (3[df] [f_d'][!courtesy!_ae'][Q:1/4=90] (3[d'f'][Q:1/4=95]!8va(! [f'_d''][_a'e''] (3[a'd''f''][a'd''f''][a'd''f'']!8va)! | %65
[Q:1/4=100] (3z _A[E_d] (3[Ade] !courtesy!_a[e!courtesy!_d'][Q:1/4=90] (3[ac'e'][Q:1/4=95]!8va(! [c'_a'][e'c''] (3[a'c''e''][a'c''e''][a'c''e'']!8va)! | %66
[Q:1/4=100] (3z [Ec][G=d] (3[ce] [ec'][gd'][Q:1/4=90] (3[c'e'][Q:1/4=95]!8va(! [e'c''][g'd''] (3[g'c''e''][g'c''e''][g'c''e'']!8va)! | %67
[Q:1/4=100] (3z G[Dc] (3[Gcd] g[dc'][Q:1/4=90] (3[g=bd'][Q:1/4=95]!8va(! [bg'][d'=b'] (3[g'b'd''][g'b'd''][g'b'd'']!8va)! | %68
[Q:1/4=100] (3z [D_B][Fc] (3[Bd] [db][fc'][Q:1/4=90] (3[bd'][Q:1/4=95]!8va(! [d'b'][f'c''] (3[b'd''][b'd''][b'd'']!8va)! | %69
!p![Q:1/4=100] (3z!<(! [DB][Gc] (3[Bd] [db][gc'][Q:1/4=90] (3[bd'][Q:1/4=95]!8va(! [d'b'][g'c''] (3[b'd''][b'd''][b'd'']!<)! | %70
!mp![Q:1/4=100]!>(! (3z [d'g'd''][d'g'd''] (3z[Q:1/4=95] [c'g'c''][c'g'c''] (3z[Q:1/4=90] [bg'b'][bg'b'] (3z!>)![Q:1/4=85] [c'g'c''][c'g'c'']!8va)!!p! | %71
[Q:1/4=100] (3z ^F[DA](3[Fd][Q:1/4=95]^f[da](3[fd']!8va(!^f'[d'a'][Q:1/4=90] (3[f'd''][f'd''][f'd''] | %72
!mp![Q:1/4=87]!>(! [^f'd'']!8va)! z[Q:1/4=84] z2 (3z!>)![Q:1/4=81]"_dim." [dd'][dd'][Q:1/4=75](3[dd'][dd']!p![dd'] | %73
"^espressivo e un poco marcato il canto"[Q:1/4=100] [dfd']4[Q:1/4=90] [dd']2[Q:1/4=95] (3:2:2x2 [cc'] | %74
[Q:1/4=100] [Bdb]4[Q:1/4=90] [Bb]2[Q:1/4=95] (3:2:2x2 [Bdb] | %75
[Q:1/4=100] [ca]2 x [Aa][Q:1/4=90]!8va(!!>(! [_g_g']2[Q:1/4=95] (3:2:2x2!8va)! [Aa]!>)! | %76
[Q:1/4=100]!p! [cdfc']4[Q:1/4=90] [db]2[Q:1/4=95][Q:1/4=95] x2 | %77
[Q:1/4=100] [dgbd']4[Q:1/4=90] [gbd']2[Q:1/4=95] (3:2:2x2 [cc'] | %78
[Q:1/4=100] [Bdgb]4[Q:1/4=90] [Bdgb]2[Q:1/4=95] (3:2:2x2 [=B=b] | %79
[Q:1/4=100] [=e_bd']2 x [cc']!p![Q:1/4=90]!8va(! b'2[Q:1/4=95] (3:2:2x2 [e=e']!8va)! | %80
!p![Q:1/4=100] [fac'f']4[Q:1/4=95][Q:1/4=90] x2[Q:1/4=85] x2 | %81
[Q:1/4=100] [f_a_d'f']4[Q:1/4=95][Q:1/4=90]"_cresc." f'2[Q:1/4=85] (3x x f' | %82
[Q:1/4=100] [_a_d'e'_a']4[Q:1/4=95][Q:1/4=90] x2[Q:1/4=85] x2 | %83
[Q:1/4=100]!8va(! [^g=b=e'^g']4!8va)![Q:1/4=95]!mp![Q:1/4=90]"_cresc."!8va(! g'2[Q:1/4=85] (3x x g' | %84
[Q:1/4=100] [=b=e'^f'=b']4!8va)![Q:1/4=95][Q:1/4=90]!8va(! x2[Q:1/4=85] x2 | %85
!mf![Q:1/4=100]"_cresc." [=b=d'^e'=b']4!8va)![Q:1/4=90]!mf!!8va(! b'2[Q:1/4=95] (3x x b' | %86
!mf![Q:1/4=100] [=b^d'^g'=b']4!8va)!!mf![Q:1/4=90]!8va(! [^a^a']2[Q:1/4=95] [^gg']2 | %87
!mf![Q:1/4=100] [=b=d'f'=b']4!8va)![Q:1/4=90]!mf!!8va(! b'2[Q:1/4=95] (3:2:2x2 b' | %88
!ff![Q:1/4=100] e''4!8va)![Q:1/4=90]!8va(! [d'd'']2[Q:1/4=95] [c'c'']2 | %89
[Q:1/4=100] [_a_a']2[Q:1/4=95] [gg']2[Q:1/4=90] f''2[Q:1/4=85] (3:2:2x2 [=b=b'] | %90
[Q:1/4=100] (3[c'e'c'']!8va)! [G,E][CG][Q:1/4=95](3[Ec][Ge][cg][Q:1/4=90]!mf!!>(! (3[ec'][egc'][egc'][Q:1/4=85](3[egc'][egc'][egc']!>)! | %91
[Q:1/4=100] (3z [Fc][_Af](3[c_a][fc'][af'][Q:1/4=90]!8va(!!>(! (3[c'f'_a'][Q:1/4=95][c'f'a'][c'f'a'](3[c'f'a'][c'f'a'][c'f'a']!8va)!!>)! | %92
[Q:1/4=100] (3z [Ge][cg](3[ec']!8va(![ge'][c'g'][Q:1/4=90] (3[e'g'c''][Q:1/4=95][e'g'c''][e'g'c''](3[e'g'c''][e'g'c''][e'g'c'']!8va)! | %93
 (3z!mp!"_dim." [_Af][c_a]!8va(!(3[fc'][af'][c'_a'] (3[a'c''f''][a'c''f''][a'c''f''](3[a'c''f''][a'c''f''][a'c''f''] | %94
 (3z [g'e''][e'c''](3[c'g'][ge'][ec']!8va)! (3z!>(! [fc'][c_a](3[_Af][Fc][CA]!>)! | %95
 (3z [ge'][ec'](3[cg][Ge][Ec] (3z [Fc][C_A](3[_A,F][I:staff +1][F,C][C,A,] | %96
[Q:1/4=110] [E,G,]2[I:staff -1] C2"^cresc." _D2 =D2 | %97
[Q:1/4=115]"^stringendo" E2[Q:1/4=120] =E2[Q:1/4=125] ^E2[Q:1/4=130] ^F2 | %98
[Q:1/4=135] =G2[Q:1/4=140] ^G2!f![Q:1/4=145]"^molto" A2[Q:1/4=150] B2 | %99
[Q:1/4=155] =B2[Q:1/4=160] c2!f!"_energico" !wedge![^C^c] z [_B_b]2- | %100
 (3:2:2[Bb]2[Q:1/4=130] [Aa] (3[Gg][Ff][=E=e] (3[Dd][^C^c][Ee] (3[=C=c][Ee][=B,=B] | %101
 (3[=E=e][B,B][Ee]!ff! [A,A] z!f![Q:1/4=80] (3:2:2!^![^c^c']2[Q:1/4=130] [Bb] (3[Aa][Gg][Ff] | %102
 (3[=E=e][Gg][_E_e] (3[Gg][Dd][Gg] (3[^C^c][Gg][B,B] [Gg][Q:1/4=60][A,A] | %103
!f![Q:1/4=80] (3:2:2!^![=e=e']2[Q:1/4=130] [dd']!<(! (3[^c^c'][Bb]!<)![Aa]!f!!<(!!8va(! (3[gg'][ff'][ee'](3[dd'][c!courtesy!^c']!<)!!ff![Q:1/4=100][bb'] | %104
[Q:1/4=130]!<(! (3[aa'][gg'][ff']"_il più forte possibile"!ff! (3[=e=e'][Q:1/4=100][e'=e''][Q:1/4=130][d'd''](3[^c'^c''][bb'][aa'] (3[bb'][gg'][bb'] (3[ff'][gg'][ee'] (3[gg'][dd'][ee']!8va)! | %105
 (3[^c^c'][=e=e'][Bb] (3[cc'][Aa][Bb]!<)! (3[Gg][Bb][Ff] (3[Gg][=Ee][Gg] (3[Dd][Ee][^Cc] (3[Ee][B,B][Cc] (3AB^G[Q:1/4=125] (3A=GA[Q:1/4=120] (3^FA=F[Q:1/4=110] (3AEA"^poco rallentando"[Q:1/4=100] _E[Q:1/4=75]A[Q:1/4=90] =C[Q:1/4=70]A[Q:1/4=80] ^C[Q:1/4=40]A || %106
[K:F][M:6/8][Q:1/4=115]"^Allegro animato" [dfd']3 [dfd']2- [dfd']/>[cc']/ | %107
 [Beb]3 [B-eb-]2 [Bb]/>[Bb]/ | [Aea]2- [Aea]/>[Aa]/ [e-ge'-]2 [ee']/>[Gg]/ | %109
 [FA-f-]2 [FAf]/>[Aa]/ [DFd]2 x | [=ce=c']3 [c-gc'-]2 [cc']/>[Bb]/ | %111
 [Ac-a-]2 [Aca]/>[cc']/ [FAf]2 x | [e^ge']3 [e-=be'-]2 [ee']/>[dd']/ | %113
 [^ce^c']2- [cec']/>[ee']/ [Aca]2 x3/4 [Aa]/4 |"_rinf." [gg']3 [Aa]2- [Aa]/>[Aa]/ | %115
"_rinf." [^f^f']3 [Aa]2- [Aa]/>[Aa]/ | [f^g-d'-f'-]2 [gd'f']/>[ff']/ [ege']2- [ege']/>[dd']/ | %117
 [^ce^c']2- [cec']/>[ee']/ [Aca]2 z3/4 [Aa]/4 |"_rinf." [G^ceg]3 [A,A]2- [A,A]/>[A,A]/ | %119
"_rinf." [^Fc_e^f]3 [A,A]2- [A,A]/>[A,A]/ | [F^G-d-f-]2 [Gdf]/>[Ff]/ [EG-d-e-]2 [Gde]/>[Dd]/ | %121
 [A,^CA][Q:1/4=110]!<(! [CE^c]/[CEc]/ [EGe] [GBg]/[GBg]/!<)!!ff! !wedge![Bcb] !wedge!!^![=Bf^g=b] | %122
[Q:1/4=100] !^![ea^c'e']!f![Q:1/4=110]!<(!!8va(! [^cec']/[cec']/ [ege'] [gbg']/[gbg']/!<)!!ff! !wedge![bc'b'] !wedge![=bf'^g'=b'] | %123
"_sempre più forte"[Q:1/4=100] [e'a'^c''e'']!f!!<(! [=bf'^g'=b']/[bf'g'b']/ !wedge![e'a'c''e''][Q:1/4=90] [bf'g'b']/[bf'g'b']/!<)!!ff! !wedge![e'a'c''e''][Q:1/4=80] [bf'g'b']/[bf'g'b']/ | %124
 !wedge![e'a'^c''e'']!8va)![Q:1/4=110]"_tumultuoso"!<(! ([^G^g]/[Aa]/.[Bb])[Q:1/4=115]"^accelerando" ([Aa]/[Bb]/.[=B=b])[Q:1/4=120] ([_B_b]/[=B=b]/ | %125
 .[cc'])[Q:1/4=125] ([Aa]/[Bb]/.[=B=b])[Q:1/4=130] ([_B_b]/[=B=b]/.[cc'])[Q:1/4=135] ([Bb]/[cc']/ | %126
.[^c^c'])[Q:1/4=140] ([Bb]/[=B=b]/.[=c=c'])[Q:1/4=145] ([Bb]/[cc']/.[^c^c'])[Q:1/4=150] ([^B^b]/[cc']/)!<)! || %127
[M:2/4][Q:1/4=100] !wedge![dd']2 !wedge![dd']>[cc'] | !wedge![Bb]2 !wedge![Bb]>[Bb] | %129
 !wedge![Aa]>[Aa] !wedge![ee']>[Gg] | !wedge![^F^f]>[Aa] !wedge![Dd]2 | %131
 !wedge![^c^c']2 !wedge![cc']>[=B=b] | !wedge![Aa]2 !wedge![^F^f]>[Aa] | %133
 !wedge![ee']2 !wedge![ee']>[dd'] | !wedge![^c^c']2 !wedge![Aa]2 | %135
 !wedge![^f^f']2 !wedge![ff']>[ff'] | !wedge![aa']2 !wedge![ee']2 | %137
 !wedge![_g_g']2 !wedge![gg']>[gg'] | !wedge![bb']2 !wedge![ff']2 | %139
"_cresc." !wedge![=g=g']2 !wedge![gg']>[gg'] | !wedge![=b=b']2 !wedge![bb']>[bb'] | %141
 !wedge![c'c'']2!8va(! !wedge![^c'^c'']>[c'c''] | !wedge![d'd'']2!8va)! !wedge![aa']2 | %143
 !wedge![ff']2 !wedge![dd']2 | !wedge![bb']2 !wedge![ff']2 | !wedge![dd']2 !wedge![Bb]2 | %146
 !wedge![_e_e']2 !wedge![Bb]2 | !wedge![Aa]2 !wedge![Ff]2 | !wedge![Ee]2 !wedge![Aa]2 | %149
"_con strepito sempre fff"[Q:1/4=100] (12:8:12D/!f! (D/!<(!d/d/d'/!8va(!d'/d''/!<)!!ff!!>(!d'/!8va)!d'/d/d/!>)![Q:1/4=50]!f!D/) | %150
[Q:1/4=100] (12:8:12z/!f! (D/!<(![^FAcd]/d/[^fac'd']/!8va(!d'/!<)![^f'a'c''d'']/!ff!!>(!d'/[fac'd']/d/!8va)![FAcd]/!>)![Q:1/4=50]!f!D/) | %151
[Q:1/4=100] (12:8:12z/!f! (D/!<(![F^G=Bd]/d/[f^g=bd']/!8va(!d'/!<)!!ff![f'^g'=b'd'']/!>(!d'/[fgbd']/d/!8va)![FGBd]/!>)![Q:1/4=50]!f!D/) | %152
[Q:1/4=100] (12:8:12z/!f! D/!<(![EGBd]/!8va(!d/[egbd']/d'/!<)![Q:1/4=100]!ff![e'g'b'd'']/!>(!d'/[egbd']/d/!8va)![EGBd]/!>)!!f!D/[Q:1/4=50][Q:1/4=50] | %153
[Q:1/4=100] (12:8:12z/!f! D/!<(![^FAd]/!8va(!d/[^fad']/d'/!<)!!ff![^f'a'd'']/!>(!d'/[fad']/d/!8va)![FAd]/!>)!!f!D/[Q:1/4=50] | %154
[Q:1/4=100] (12:8:12z/!f! C/!<(![_E^FAc]/c/[_e^fac']/!8va(!c'/!<)!!ff![_e'^f'a'c'']/!>(!c'/!8va)![efac']/c/[EFAc]/!>)!!f!C/[Q:1/4=50] | %155
[Q:1/4=100] (12:8:12z/!f! =B,/!<(![D=F^G=B]/B/[df^g=b]/!8va(!b/!<)!!ff![d'f'^g'=b']/!>(!b/!8va)![dfgb]/B/[DFGB]/!>)!!f!B,/[Q:1/4=50] | %156
[Q:1/4=100] (6:4:6_B,/!f![^CE_B]/!<(!B/[^ceb]/!8va(!b/!<)!!ff![^c'e'b']/!8va)![Q:1/4=100] (6:4:6G,/!f![B,CG]/!<(!G/[Bcg]/g/!<)!!ff![bc'g']/[Q:1/4=50][Q:1/4=50] | %157
[Q:1/4=80] [D^Fd][Q:1/4=70]!f!!8va(! ([bb']/[Q:1/4=100]!<(![^c'e']/)([gg']/[bc']/)([ee']/[gb]/)!8va)! | %158
 ([^c^c']/[eg]/)([Bb]/[ce]/)([Aa]/[ce]/)([Gg]/[Bc]/)!<)! | %159
!fff! [d^fd'][Q:1/4=70]!f! (([Bb]/[Q:1/4=100]!<(![^ce]/))(([Gg]/[Bc]/))(([Ee]/[GB]/)) | %160
(([^C^c]/[EG]/))(([B,B]/[CE]/))(([A,A]/[CE]/))(([G,G]/[B,C]/))!<)! | %161
!fff! !wedge![D^Fd]!f! [EB^ce]/!<(![EBce]/ !wedge![FAd^f] [Bceb]/[Bceb]/ | %162
!fff! !wedge![d^fad']!8va(! [eb^c'e']/[ebc'e']/ !wedge![fad'^f'] [bc'e'b']/[bc'e'b']/ | %163
 !wedge![d'^f'a'd''][Q:1/4=95] [b^c'e'b']/[bc'e'b']/ !wedge![d'f'a'd''][Q:1/4=90] [bc'e'b']/[bc'e'b']/ | %164
 !wedge![d'^f'a'd'']!<)!!8va)![Q:1/4=160] z z3/2[Q:1/4=100]!fff! [dd']/ | %165
[Q:1/4=70][dd'] z/[Q:1/4=100] [Dd]/[Q:1/4=70][Dd] z/[Q:1/4=100] D/ | %166
[Q:1/4=70] D2[Q:1/4=65] [B,D]2 |[Q:1/4=60] [B,D]2[Q:1/4=55] [DG]2 | %168
[Q:1/4=40] !fermata!!stemless![D^FA]8 |] %169
V:2
 z2 (3z [DF][EG] (3[FA] z z z2 (3z!<(! [DF][EG] (3[FA] z z!<)! | %1
 z2 (3z [EG][FA] (3[GB] z z z2 (3z!<(! [EG][FA] (3[GB] z z!<)! | %2
 z2 (3z [^CE][DF] (3[EG] z z z2 (3z [CE][DF] (3[EG] z z | %3
 z2 (3z [DF][EG] (3:2:2[FA] x2 x2 (3z [DF][EG] (3[FA] z z | %4
 z2 (3z [CE][DF] (3[EG] z z z2 (3z [EG][FA] (3[Gc] z z | %5
 z2 (3z [FA][GB] (3:2:2[Ac] x2 z2 (3z [FA][Ac] (3[cf] z z | %6
 z2 (3z [E^G][^FA] (3[G=B] z z z2 (3z [GB][Ac] (3[Be] z z | %7
 z2 (3z [A^c][=Bd] (3:2:2[ce] x2 z2 (3z [Ac][Ace] (3[cea] z z | %8
 z2 (3z [^ce][df] (3[eg] z z z2 (3z [eg][df] (3[ce] z z | %9
 z2 (3z [c_e][d=f] (3[e^f] z z z2 (3z [ef][d=f] (3[ce] z z | %10
 z2 (3z [=Bd][^ce] (3[df] z z z2 (3z [E^G][^FA] (3[GB] z z | %11
 z2 (3z [A^c][=Bd] (3:2:2[ce] x2 z2 (3z [A,^C][=B,D] (3[CE] z x | %12
 z2 (3z [^CE][DF] (3[EG] z z z2 (3z [EG][DF] (3:2:2[CE] x2 | %13
 z2 (3z [C_E][D=F] (3[E^F] z z z2 (3z [EF][D=F] (3[CE] z z | %14
 z2 (3z [=B,D][^CE] (3[DF] z z z2 (3z [DE][DF] (3[DE] z z | %15
 x2 (3[^C^c][EG]C (3[Ee][GB]E (3[Gg][Bc]G (3[Bb][ce]B (3[=B=b][f^g]B | %16
!8va(! x2 (3[^c^c'][eg]c (3[ee'][gb]e (3[gg'][bc']g (3[bb'][c'e']b (3[=b=b'][f'^g']b | %17
 x2 (3[=b=b'][f'^g']b x2 (3[bb'][f'g']b x2 (3[bb'][f'g']b | x!8va)! x11 | x12 | x6!8va(! x6 | %21
 x10!8va)! x2 | x10[I:staff +1] (3A,B,^G, | (3A,=G,A, (3^F,A,=F, (3A,E,A, _E,A, C,A, ^C,A, || %24
[M:4/4][I:staff -1] (3z !wedge![DF]!wedge![EG](3!wedge![FA]!wedge![EG]!wedge![DF] (3z !wedge![DF]!wedge![EG](3!wedge![FA]!wedge![EG]!wedge![DF] | %25
 (3z [EG][FA](3[GB][FA][EG] (3z [EG][FA](3[GB][FA][EG] | %26
 (3z [^CE][DF](3[EG][DF][CE] (3z [CE][DF](3[EG][DF][CE] | %27
 (3z [DF][EG](3[FA][EG][DF] (3z [DF][EG](3[FA][EG][DF] | %28
 (3z [CE][DF](3[EG][DF][CE] (3z [EG][F_A](3[GB][FA][EG] | %29
 (3z [F_A][GB](3[Ac][GB][FA] (3z [FA][GB](3[Ac][GB][FA] | %30
 (3z [_EG][F_A](3[GB][FA][EG] (3z [GB][Ac](3[B_e][Ac][GB] | %31
 (3z [_Ac][B_d](3[c_e][Bd][Ac] (3z [Ac][Bd](3[ce][Bd][Ac] | %32
 (3z [=Bd][c_e](3[df][ce][=Bd] (3z [Bd][ce](3[df][ce][Bd] | %33
 (3z [_Ac][B_d](3[c_e][Bd][Ac] (3z [Ac][Bd](3[ce][Bd][Ac] | %34
 (3z [=Bd][c_e](3[df][ce][=Bd] (3z [Bd][ce](3[df][ce][Bd] | %35
 (3z [_Ac][B_d](3[c_e][Bd][Ac] (3z [=B=d][^c=e](3[df][ce][Bd] | %36
 (3z [df]A (3z [Ad]F (3z [FA]D (3z [DF]A, | (3z [EG]D (3z [DE]B, (3z [B,D]G, (3z [EG]^C | x8 | %39
 (3z!f! [D^F][EG] (3[FA] [d^f][eg] (3[fa] [d'^f'][e'g'] (3!^![f'a']!ff! z [Dd] | %40
 (3z!f! [DF][EG] (3[F^G] [df][eg] (3[f^g] [d'f'][e'g'] (3!^![f'^g']!ff! z [Dd] | %41
 (3z [^CE][DF](3[EG][DF][CE] (3z [CE][DF](3[EG][DF][CE] | %42
 (3z!f! [D^F][EG] (3[FA] [d^f][eg] (3[fa] [d'^f'][e'g'] (3!^![f'a']!ff! z [Dd] | %43
 (3z!f! [^FA][GB] (3[Ac] [^fa][gb] (3[ac'] [^f'a'][g'b'] (3!^![a'c'']!ff! z [Dd] | %44
 (3z!f! [F^G][=G^A] (3[^G=B] [f^g][=g^a] (3[^g=b]!8va(! [f'^g'][=g'^a'] (3!^![^g'=b']!8va)!!ff! z [Dd] | %45
 (3z [^CE][DF](3[EG][DF][CE] (3z [CE][DF](3[EG][DF][CE] | %46
 x2!8va(! (3[bb'][^c'e']b (3[gg'][bc']g (3[ee'][gb]e!8va)! | %47
 (3[^c^c'][eg]c (3[Bb][ce]B (3[Aa][ce]A (3[Ge][Bc]G | x2 (3[Bb][^ce]B (3[Gg][Bc]G (3[Ee][GB]E | %49
 (3[^C^c][EG]C (3[B,B][CE]B, (3[A,A][CE]A, (3[G,E][B,C]G, | x2 (3[Ee][B^c]E x2 (3[Bb][eg]B | %51
 x2!8va(! (3[ee'][b^c']e x2 (3[bb'][e'g']b | x2 (3[bb'][e'g']b x2 (3[bb'][e'g']b | x!8va)! x7 | %54
 x2 (3x[I:staff +1] D,D, D,2 D,2 | D,2 D,2 D,2 D,2 ||[K:Bb] x14/3!8va(! x10/3!8va)! | %57
 x14/3!8va(! x10/3!8va)! | x14/3!8va(! x10/3!8va)! | x14/3!8va(! x10/3!8va)! | %60
 x14/3!8va(! x10/3!8va)! | x14/3!8va(! x10/3!8va)! | x14/3!8va(! x10/3!8va)! | %63
 x14/3!8va(! x10/3!8va)! | x14/3!8va(! x10/3!8va)! | x14/3!8va(! x10/3!8va)! | %66
 x14/3!8va(! x10/3!8va)! | x14/3!8va(! x10/3!8va)! | x14/3!8va(! x10/3!8va)! | x14/3!8va(! x10/3 | %70
 x8!8va)! | x14/3!8va(! x10/3 | x!8va)! x7 |[I:staff -1] dBFB (3f[df][df](3[df][df] z | %74
 !wedge!B!wedge!F!wedge!D!wedge!F (3d[Bd][Bd](3[Bd][Bd] z | %75
 A!wedge!_G!wedge!EA!8va(! (3a[_ga][ga](3[ga][ga]!8va)! x | %76
 !wedge!B!wedge!F!wedge!D!wedge!F (3B[Bd][Bd](3[Bd][Bd][Bd] | %77
 !wedge!d!wedge!B!wedge!G!wedge!B (3[dg][dg][dg](3[dg][dg] z | BGDG (3B[Bd][Bd](3[Bd][Bd] z | %79
 dBGc!8va(! (3[bc'][bc'][bc'](3[bc'][bc'] z!8va)! | %80
 fcFc (3[fac'f'][fac'f'][fac'f'](3[fac'f'][fac'f'][fac'f'] | %81
 f_dFd (3[f_a_d'f'][fad'f'][fad'f'](3[fad'f'][fad'f'][fad'f'] | %82
 _ae!courtesy!_Ae (3[ac'e'_a'][ac'e'a'][ac'e'a'](3[ac'e'a'][ac'e'a'][ac'e'a'] | %83
!8va(! ^g!8va)!=e^Ge!8va(! (3[g=b=e'^g'][gbe'g'][gbe'g'](3[gbe'g'][gbe'g'][gbe'g'] | %84
 =b!8va)!^f=Bf!8va(! (3[fb^d'^f'][fbd'f'][fbd'f'](3[fbd'f'][fbd'f'][fbd'f'] | %85
 =b!8va)!^e=Be!8va(! (3[bd'^e'=b'][bd'e'b'][bd'e'b'](3[bd'e'b'][bd'e'b'][bd'e'b'] | %86
 =b!8va)!^g^d=B!8va(! (3z [b^d'][bd'] (3z [bd'][bd'] | %87
 =b!8va)!f=Bf!8va(! (3[bd'f'=b'][bd'f'b'][bd'f'b'](3[bd'f'b'][bd'f'b'][bd'f'b'] | %88
 [e'g']!8va)!"_molto appassionato"!>(!gcg!8va(! (3[e'g'][e'g'][e'g'](3[e'g'][e'g'][e'g'] | %89
 (3z [=bf'][bf'](3[bf'][bf'][bf'] (3[f'g'][f'g'][f'g'](3[f'g'][f'g'][f'g']!>)! | x2/3!8va)! x22/3 | %91
 x4!8va(! x4!8va)! | x8/3!8va(! x16/3!8va)! | x2!8va(! x6 | x4!8va)! x4 | x8 | %96
 x2[I:staff +1] C,2 _D,2 =D,2 | E,2 =E,2 ^E,2 ^F,2 | =G,2 ^G,2 x4 | x8 | x8 | x8 | x8 | %103
 x4!8va(! x4 | x12!8va)! | x12 (3A,B,^G, (3A,=G,A, (3^F,A,=F, (3A,=E,A, _E,A, C,A, ^C,A, || %106
[K:F][M:6/8] x[I:staff -1] ([DF]/[EG]/.[FA]) x ([DF]/[EG]/.[FA]) | %107
 x ([EG]/[FA]/.[GB]) x ([EG]/[FA]/.G) | x ([^CE]/[DF]/.[EG]) x ([CE]/[DF]/.[EG]) | %109
 x ([DF]/[EG]<.[FA]) x/ ([DF]/[EG]/.[FA]) | x ([CE]/[DF]/.[EG]) x ([EG]/[FA]/.[Gc]) | %111
 x ([FA]/[GB]<.[Ac]) x/ ([FA]/[GB]/.[Ac]) | x ([E^G]/[^FA]/.[G=B]) x ([GB]/[Ac]/.[Be]) | %113
 x ([A^c]/[=Bd]<.[ce]) x/ ([Ac]/[Bd]/.[ce]) | x ([^ce]/[df]/.[eg]) x ([eg]/[df]/.[ce]) | %115
 x ([=c_e]/[d=f]/.[e^f]) x ([ef]/[d=f]/.[ce]) | %116
 x ([=Bd]/[^ce]/.[df]) x ([E!courtesy!^G]/[^FA]/.[GB]) | %117
 x ([A^c]/[=Bd]<.[ce]) x/ ([^CE]/[=B,D]/.[A,C]) | x ([^CE]/[DF]/.[EG]) x ([EG]/[DF]/.[CE]) | %119
 x ([C_E]/[D=F]/.[E^F]) x ([EF]/[D=F]/.[CE]) | x ([=B,D]/[^CE]/.[DF]) x ([DE]/F/.[DE]) | x6 | %122
 x!8va(! x5 | x6 | x!8va)! x5 | x6 | x6 || %127
[M:2/4] d({[D^F][EG])}!wedge![FA] d({[DF][EG])}!wedge![FA] | %128
 B({[EG][^FA])}!wedge![GB] B({[EG][FA])}!wedge![GB] | %129
 A({[^CE][D^F])}!wedge![EG] e({[CE][EG])}!wedge![EG] | %130
 ^F({[DF][EG])}!wedge![FA] D({[DF][EG])}!wedge![FA] | %131
 ^c({[^C^E][^D^F])}!wedge![E^G] c({[EG][FA])}!wedge![GB] | %132
 A({[^FA][^G=B])}!wedge![A^c] F({[FA][GB])}!wedge![Ac] | %133
 e({[E^G][^FA])}!wedge![G=B] e({[GB][A^c])}!wedge![Bd] | %134
 ^c({[Ac][=Bd])}!wedge![ce] A({[Ac][Bd])}!wedge![ce] | %135
 ^f({[^B^d][^^c^e])}!wedge![df] f({[Bd][ce])}!wedge![df] | %136
 a({[A^c][=Bd])}!wedge![ce] e({[Ac][Bd])}!wedge![ce] | %137
 _g({[=c_e][df])}!wedge![eg] g({[ce][df])}!wedge![eg] | %138
 b({[Bd][c_e])}!wedge![df] f({[Bd][ce])}!wedge![df] | %139
 g({[^ce][_e^f])}!wedge![=eg] g({[ce][^df])}!wedge![eg] | %140
 =b({[=B^d][^ce])}!wedge![d^f] b({[=d=f][eg])}!wedge![f_a] | %141
 c'({[ce][df])}!wedge![eg]!8va(! ^c'({[eg][fa])}!wedge![gb] | %142
 d'!8va)!({[df][eg])}!wedge![fa] a({[Ad][^ce])}!wedge![df] | %143
 f{[FA]-[F-A-^c]}!wedge![FAd] d({[DF][EG])}!wedge![FA] | %144
 b({[Bd][c_e])}!wedge![df] f({[FB][Ac])}!wedge![Bd] | %145
 d{[DF][D-F-A]}!wedge![DFB] B({[B,D][C_E])}!wedge![DF] | %146
 _e({[_EG][FA])}!wedge![GB] B({[B,E][DF])}!wedge![EG] | %147
 A({[DF][=EG])}!wedge![FA] F({[A,D][^CE])}!wedge![DF] | E!arpeggio![G,B,DE] A[A,^CEA] | %149
[I:staff +1] [F,A,]/ x7/6!8va(! x!8va)! x4/3 | x5/3!8va(! x5/3!8va)! x2/3 | %151
 x5/3!8va(! x5/3!8va)! x2/3 | x!8va(! x7/3!8va)! x2/3 | x!8va(! x7/3!8va)! x2/3 | %154
 x5/3!8va(! x!8va)! x4/3 | x5/3!8va(! x!8va)! x4/3 | x4/3!8va(! x2/3!8va)! x2 | x!8va(! x3!8va)! | %158
 x4 | x4 | x4 | x4 | x!8va(! x3 | x4 | x!8va)! x3 | x7/2 D,/ | D,2 [D,F,]2 | [D,G,]2 [G,B,]2 | %168
 x8 |] %169
V:3
!ped! [D,,A,,D,]4- (3[D,,A,,D,][A,,A,][F,,F,] [D,,A,,D,]4- (3[D,,A,,D,][A,,A,][F,,F,]!ped-up! | %1
!ped! [D,,G,,B,,D,E,]4- (3[D,,G,,B,,D,E,][B,,B,][G,,G,] [D,,G,,B,,D,E,]4- (3[D,,G,,B,,D,E,][B,,B,][G,,G,]!ped-up! | %2
!ped! [^C,,A,,^C,]4- (3[C,,A,,C,][E,,E,][C,,C,]!ped-up!!ped! [A,,,C,,A,,]4- (3[A,,,C,,A,,][=C,,=C,][^C,,^C,]!ped-up! | %3
!ped! [D,,A,,D,]4- (3[D,,A,,D,][A,,A,][F,,F,] [B,,,A,,D,]4- (3[B,,,A,,D,][F,,F,][D,,D,]!ped-up! | %4
!ped! [C,,G,,C,]4- (3[C,,G,,C,][D,,D,][^D,,^D,]!ped-up!!ff!!ped! [E,,C,E,]4- (3[E,,C,E,][G,,G,][C,C]!ped-up! | %5
!ped! [F,,C,F,]4- (3[F,,C,F,][G,,G,][^G,,^G,]!ped-up!!ped! [A,,F,A,]4- (3[A,,F,A,][C,C][F,F]!ped-up! | %6
!ff!!ped! [E,,=B,,E,]4- (3[E,,B,,E,][^F,,^F,][^^F,,^^F,]!ped-up!!ff!!ped! [^G,,E,^G,]4- (3[G,,E,G,][B,,=B,][E,E]!ped-up! | %7
!ff!!ped! [A,,E,A,]4- (3[A,,E,A,][=B,,=B,][^B,,^B,]!ped-up!!ff!!ped! [^C,A,^C]4- (3[C,A,C][E,E][A,,F]!ped-up! | %8
!ped! [B,,^C,E,G,B,]4- (3[B,,C,E,G,B,][B,,B,][A,,A,]!ped-up!!ped! [A,,A,]4- (3[A,,A,][^G,,^G,][A,,A,]!ped-up! | %9
!ped! [B,,C,_E,^F,B,]4- (3[B,,C,E,F,B,][B,,B,][A,,A,]!ped-up!!ped! [A,,A,]4- (3[A,,A,][^G,,^G,][A,,A,]!ped-up! | %10
!ped! [=B,,D,F,^G,=B,]4- (3[B,,D,F,G,B,][B,,B,][^G,,G,]!ped-up!!ped! [E,,B,,E,]4- (3[E,,B,,E,][^F,,^F,][G,,G,]!ped-up! | %11
!ped! [A,,E,A,]4- (3[A,,E,A,][E,,E,][^C,,^C,]!ped-up!!ped! [A,,,E,,A,,]4- (3[A,,,E,,A,,][^G,,,^G,,][A,,,A,,]!ped-up! | %12
!ped! [B,,,^C,,E,,G,,B,,]4- (3[B,,,C,,E,,G,,B,,][B,,,B,,][A,,,A,,]!ped-up!!ped! [A,,,A,,]4- (3[A,,,A,,][^G,,,^G,,][A,,,A,,]!ped-up! | %13
!ped! [B,,,C,,_E,,^F,,B,,]4- (3[B,,,C,,E,,F,,B,,][B,,,B,,][A,,,A,,]!ped-up!!ped! [A,,,A,,]4- (3[A,,,A,,][^G,,,^G,,][A,,,A,,]!ped-up! | %14
!ped! [=B,,,D,,F,,^G,,=B,,]4- (3[B,,,D,,F,,G,,B,,][C,,=C,][B,,,B,,]!ped-up!!ped! [_B,,,D,,E,,_B,,]4- (3[B,,,D,,E,,B,,][C,,C,][B,,,B,,]!ped-up! | %15
!ped! [A,,,E,,A,,]!f! z!ped-up!!<(!!ped! !>!B,2!ped-up!!ped! !>!^C2!ped-up!!ped! !>!E2!ped-up!!ped! !>!G2!<)!!ped-up!!ped! !arpeggio!!^![D,F,^G,=B,D]2!ped-up! | %16
!ped! !^![A,,^C,E,A,] z!ped-up![K:treble]!<(!!ped! !>!B2!ped-up!!ped! !>!^c2!ped-up!!ped! !>!e2!ped-up!!ped! !>!g2!<)!!ped-up!!ped! !arpeggio!!^![DF^G=Bd] z!ped-up! | %17
!ped! !arpeggio!!^![A,^CEA] z!ped-up![K:bass]!ped! !arpeggio![D,F,^G,=B,D] z!ped-up!!ped! !arpeggio![A,,^C,E,A,] z!ped-up!!ped! !arpeggio![D,,F,,^G,,=B,,D,] z!ped-up!!ped! !arpeggio![A,,,^C,,E,,A,,] z!ped-up!!ped! !arpeggio![D,,F,,G,,B,,D,] z!ped-up! | %18
!ped! [A,,,^C,,E,,A,,] z!ped-up!"^ten."!ped! (3:2:2!^!!fermata![B,,B,]2 [A,,A,] (3[G,,G,][F,,F,][E,,E,] (3[D,,D,]!ped-up!!ped![C,,^C,][E,,E,]!ped-up!!ped!!<(! (3[=C,,=C,][E,,E,]!ped-up!!ped![=B,,,=B,,] (3[E,,E,]!ped-up!!ped![_B,,,_B,,][E,,E,]!<)!!ped-up! | %19
!ped! [A,,,A,,] z!ped-up!!ped! (3:2:2!^!!fermata![^C,^C]2 [B,,B,] (3[A,,A,][G,,G,][F,,F,] (3[E,,E,]!ped-up!!ped![G,,G,]!<(![_E,,_E,]!ped-up!!ped! (3[G,,G,][D,,D,]!ped-up!!ped![G,,G,] (3[^C,,C,]!ped-up!!ped![G,,G,][B,,,B,,]!<)!!ped-up! | %20
!ped! [G,,G,][A,,,A,,]!ped-up!!ped! (3:2:2!^![E,E]2 [D,D] (3[^C,^C][B,,B,][A,,A,]!ped-up!!ped! (3[G,G][F,F][E,E] (3[D,D][C,C]!ped-up!!ped![B,B] (3[A,A][G,G][F,F] | %21
 (3[E,E]!ped-up![K:treble]!ped![Ee][Dd] (3[^C^c][B,B][A,A] (3[B,B]!ped-up!!ped![G,G][B,B]!ped-up![K:bass]!ped! (3[F,F][G,G]!ped-up!!ped![E,E] (3[G,G]!ped-up!!ped![D,D][G,G]!ped-up!!ped! (3[!courtesy!^C,!courtesy!^C][E,E]!ped-up!!ped![B,,B,] | %22
 (3[^C,^C]!ped-up!!ped![A,,A,][B,,B,]!ped-up!!ped! (3[G,,G,][B,,B,]!ped-up!!ped![F,,F,] (3[G,,G,]!ped-up!!ped![E,,E,][G,,G,]!ped-up!!ped! (3[D,,D,][E,,E,]!ped-up!!ped![^C,,C,] (3[E,,E,]!ped-up!!ped![B,,,B,,][C,,C,]!ped-up!!ped! (3[A,,,A,,][B,,,B,,]!ped-up!!ped![^G,,,^G,,] | %23
!<(! (3[A,,,A,,]!ped-up!!ped![=G,,,=G,,][A,,,A,,]!ped-up!!ped! (3[^F,,,^F,,][A,,,A,,]!ped-up!!ped![=F,,,=F,,] (3[A,,,A,,]!ped-up!!ped![E,,,E,,][A,,,A,,]!ped-up!!ped! [_E,,,_E,,][A,,,A,,]!ped-up!!ped! [C,,,C,,][A,,,A,,]!ped-up!!ped! [^C,,,^C,,][A,,,A,,]!<)!!ped-up! || %24
[M:4/4]!fff!"^energico sempre"!ped! (3[D,,A,,D,] [D,F,][E,G,](3[F,A,][E,G,][D,F,]!ped-up!!ped! (3[D,,A,,D,] [D,F,][E,G,](3[F,A,][E,G,][D,F,]!ped-up! | %25
!ped! (3[D,,G,,B,,D,] [E,G,][F,A,](3[G,B,][F,A,][E,G,]!ped-up!!ped! (3[D,,G,,B,,D,] [E,G,][F,A,](3[G,B,][F,A,][E,G,]!ped-up! | %26
!ped! (3[^C,,A,,^C,] [C,E,][D,F,](3[E,G,][D,F,][C,E,]!ped-up!!ped! (3[A,,,A,,] [C,E,][D,F,](3[E,G,][D,F,][C,E,]!ped-up! | %27
!ped! (3[D,,A,,D,] [D,F,][E,G,](3[F,A,][E,G,][D,F,]!ped-up!!ped! (3[D,,A,,D,] [D,F,][E,G,](3[F,A,][E,G,][D,F,]!ped-up! | %28
!ped! (3[C,,G,,C,] [C,E,][D,F,](3[E,G,][D,F,][C,E,]!ped-up!!ped! (3[C,,G,,C,] [E,G,][F,_A,](3[G,B,][F,A,][E,G,]!ped-up! | %29
!ped! (3[F,,C,F,] [F,_A,][G,B,](3[A,C][G,B,][F,A,]!ped-up!!ped! (3[F,,C,F,] [F,A,][G,B,](3[A,C][G,B,][F,A,]!ped-up! | %30
!ped! (3[_E,,B,,_E,] [E,G,][F,_A,](3[G,B,][F,A,][E,G,]!ped-up!!ped! (3[G,,E,G,] [G,B,][A,C](3[B,!courtesy!_E][A,C][G,B,]!ped-up! | %31
!ped! (3[_A,,_E,_A,] [A,C][B,_D](3[C_E][B,D][A,C]!ped-up!!ped! (3[A,,E,A,] [A,C][B,D](3[CE][B,D][A,C]!ped-up! | %32
!ped! [_A,,D,_A,]4!ped-up!!ped! [A,,D,A,]2 x x/ [A,,D,A,]/!ped-up! | %33
!ped! [_A,,_E,_A,]4!ped-up!!ped! [A,,C,A,]4!ped-up! | %34
!ped! [_A,,D,_A,]4!ped-up!!ped! [A,,D,A,]2 x x/ [A,,D,A,]/!ped-up! | %35
!ped! [_A,,_E,_A,]4!ped-up!!ped! [^G,,=B,,D,F,^G,]4!ped-up! | %36
!ped! [A,,A,]2!ped-up!!ped! [F,,F,]2!ped-up!!ped! [D,,D,]2!ped-up!!ped! [A,,,A,,]2!ped-up! | %37
!ped! [B,,,B,,]2!ped-up!!ped! [G,,,G,,]2!ped-up!!ped! [E,,,E,,]2!ped-up!!ped! [A,,,A,,]2!ped-up! | %38
!ff!!ped! (3!wedge![D,,A,,D,]!<(! [D,F,][E,G,] (3[F,A,] [DF][EG] (3[FA][K:treble] [df][eg] (3!^![fa]!<)! z[K:bass] [D,,D,]!ped-up! | %39
"_ten."!ped! [D,,A,,C,D,]4 x4[K:treble]!ped-up![K:bass] | %40
"_ten."!ped! [D,,^G,,=B,,D,]4 x4[K:treble]!ped-up![K:bass] | %41
!ped! !^![D,,G,,B,,^C,]2 x x!ped-up!!ped! !^![D,,B,,C,E,]2 x x!ped-up! | %42
!ped! !^![D,,A,,D,]2 x2[K:treble] x4[K:bass]!ped-up! | %43
!ped! [_E,,F,,A,,C,_E,]4[K:treble] x4!ped-up![K:bass] | %44
!ped! [_E,,=F,,^G,,=B,,_E,]4[K:treble] x4!ped-up![K:bass] | %45
!ped! !wedge![B,,,B,,]2 x x/ [B,,,B,,]/!ped-up!!ped! !wedge![A,,,A,,]2 x x/!ped-up! [G,,,G,,]/ | %46
!ped! [D,,A,,D,]2!ped!!8vb(! !//-![D,,,E,,,G,,,]3!ped-up!!ped! [B,,,^C,,]3!ped-up!!ped!!ped-up! | %47
!ped! [D,,,E,,,G,,,B,,,^C,,]!8vb)! z!ped-up!!ped! B,2!ped-up!!ped! A,2!ped-up!!ped! E,2 | %48
!ped! [D,^F,A,D]2!ped! !//-![D,,E,,G,,]3!ped-up!!ped! [B,,^C,]3!ped-up!!ped!!ped-up! | %49
!ped! [D,,E,,G,,B,,^C,] z!ped-up!!ped! B,,2!ped-up!!ped! A,,2!ped-up!!ped! E,,2 | %50
 !wedge![D,,^F,,A,,D,] z!ped-up!!ped! !wedge![G,,B,,^C,E,G,] z !wedge![D,^F,A,D] z!ped-up!!ped! !wedge![G,,B,,C,E,G,] z | %51
 !wedge![D,,^F,,A,,D,] z!ped-up!!ped! !wedge![G,,B,,^C,E,G,] z !wedge![D,^F,A,D] z!ped-up!!ped! !wedge![G,,B,,C,E,G,] z | %52
 !wedge![D,,^F,,A,,D,] z!ped-up!!ped! !wedge![G,,B,,^C,E,G,] z !wedge![D,,F,,A,,D,] z!ped-up!!ped! !wedge![G,,B,,C,E,G,] z | %53
!ff! !wedge![D,,^F,,A,,D,]!ped-up! z (3z!ped! [D,D][D,D] !wedge![D,D]2 (3z [D,,D,][D,,D,] | %54
 !wedge![D,,D,]2 (3z [D,,,D,,][D,,,D,,] [D,,,D,,]2 [D,,,D,,]2 | [D,,,D,,]2 z2 z4 || %56
[K:Bb]!ped! D4 [B,D-]2 (3:2:2D2 C!ped-up! |!ped! B,4 B,2- (3:2:2B,2 B,!ped-up! | %58
!ped! A,2- (3:2:2A,2 A, _G2- (3:2:2G2 A,!ped-up! |!ped! (C4 B,2) x2!ped-up! | %60
!ped! D4 D2- (3:2:2D2 C!ped-up! |!ped! B,4 B,2- (3:2:2B,2 =B,!ped-up! | %62
!ped! D2- (3:2:2D2 C B2- (3:2:2B2 !courtesy!=E!ped-up! |!ped! F4 x2 x2!ped-up! | %64
!ped! [_DF]4 [DF]2- (3:2:2[DF]2 [DF]!ped-up! |!ped! ([_DE_A]4 [CE]2) x2!ped-up! | %66
!ped! [CE]4 [CE]2- (3:2:2[CE]2 [CE]!ped-up! |!ped! ([CDG]4 [=B,D]2) x2!ped-up! | %68
!ped! D4 [B,D-]2 (3:2:2D2 C!ped-up! |!ped! B,4 B,2- (3:2:2B,2 B,!ped-up! | %70
!ped! D2 C2 B,2 C2!ped-up! |!ped! D4 x2 x2!ped-up! | %72
[K:treble]!ped! (3d [dd'][dd'](3[dd'][dd'][dd'] [dd'] z z2!ped-up! | %73
[K:bass]"^l'accompagnamento piano e leggiero"!ped! [B,,,B,,]2 x2[K:treble]!ped-up!!ped! x4!ped-up! | %74
[K:bass]!ped! [B,,,B,,]2 x2!ped-up!!ped! x4!ped-up! | %75
!ped!!<(! [B,,,B,,]2 x2!<)![K:treble]!p!!ped-up!!ped! x4!ped-up! | %76
[K:bass]!ped! [B,,,B,,]2 x2!ped-up!!ped! x4!ped-up! | %77
!ped! [G,,,G,,]2 x2[K:treble]!ped-up!!ped! x4!ped-up! | %78
[K:bass]!ped! [G,,,G,,]2 x2!ped-up!!ped! x4!ped-up! | %79
!<(!!ped! [C,,C,]2 x2!<)![K:treble]!ped-up!!ped! x4!ped-up! | %80
[K:bass]!ped! [F,,,F,,]2 x2!ped-up!!ped! x4!ped-up! |!ped! [_D,,_D,]2 x2!ped-up!!ped! x4!ped-up! | %82
!ped! [_A,,,_A,,]2 x2!ped-up!!ped! x4!ped-up! |!ped! [=E,,=E,]2 x2!ped-up!!ped! x4!ped-up! | %84
!ped! [=B,,,=B,,]2 x2[K:treble]!ped-up!!ped! x4!ped-up! | %85
[K:bass]!ped! [^G,,,^G,,]2 x2[K:treble]!ped-up!!ped!!<(! x4!ped-up!!<)! | %86
[K:bass]!ped! [^G,,,^G,,]2 x2[K:treble]!ped-up!!ped!!<(! x4!ped-up!!<)! | %87
[K:bass]!ped! [_A,,,_A,,]2 x2[K:treble]!ped-up!!ped! x4!ped-up! | %88
[K:bass]!ped! [G,,,G,,]2 x2[K:treble]!ped-up!!ped! x4!ped-up! | %89
[K:bass]!ped! [G,,,G,,]2 x2!ped-up!!ped! x4!ped-up! | %90
!mf!!ped! (3[C,,G,,C,]!mf! [C,E,][E,G,](3[G,C][CE][K:treble][EG]!ped-up!!ped! (3[Gc][EGc][EGc](3[EGc][EGc]!ped-up![EGc] | %91
[K:bass]!ped!!mp! C4!ped-up!!ped!!mp! C3 C!ped-up! |!ped!!mp! E6!ped-up!!ped! D!wedge!C!ped-up! | %93
!ped! C4!ped-up!!ped! C3 C!ped-up! |!ped! E2 z2!ped-up!!p! (D2!ped! C) z!ped-up! | %95
!ped!!pp! E,2 z2!ped-up!!ped! (D,2 C,) z!ped-up! | %96
 [C,,G,,] z!ped-up!!ped! z [C,,C,]!ped-up!!ped! z [=B,,,=B,,]!ped-up!!ped! z [_B,,,_B,,] | %97
!ped! z [D,,,E,,]!ped-up!!ped! z [D,,D,]!ped-up!!ped! z [^C,,^C,]!ped-up!!ped! z [^F,,,^F,,]!ped-up! | %98
!ped! z [=F,,,=F,,]!ped-up!!ped! z [=E,,,=E,,]!ped-up!!ped!!<(! (3z z [A,,,A,,]!ped-up!!ped! (3z z [A,,,A,,]!ped-up! | %99
!ped! (3z z [A,,,A,,]!ped-up!!ped! (3z!<)! z [A,,,A,,]!ped-up!!ped! !wedge![A,,=E,G,] z!ped-up!!ped! [_B,,_B,]2-!ped-up! | %100
 (3:2:2[B,,B,]2 [A,,A,] (3[G,,G,][F,,F,][=E,,=E,] (3[D,,D,]!ped-up!!ped![^C,,^C,][E,,E,]!ped-up!!ped!!<(! (3[=C,,=C,][E,,E,]!ped-up!!ped![=B,,,=B,,] | %101
 (3[=E,,=E,]!ped-up!!ped![B,,,B,,][E,,E,]!<)!!ped-up!!ped! [A,,,A,,] z!ped-up!!ped! (3:2:2!^![^C,^C]2 [B,,B,] (3[A,,A,][G,,G,][F,,F,] | %102
 (3[=E,,=E,]!ped-up!!ped![G,,G,]!<(![_E,,_E,]!ped-up!!ped! (3[G,,G,][D,,D,]!ped-up!!ped![G,,G,] (3[^C,,^C,]!ped-up!!ped![G,,G,][B,,,B,,]!ped-up!!ped! [G,,G,]!ff![A,,,A,,]!<)! | %103
!ped! (3:2:2!^![=E,=E]2 [D,D] (3[^C,^C][B,,B,]!ff![A,,A,]!ped-up!!ped! (3[G,G][F,F][E,E](3[D,D][C,C]!ped-up!!ped![B,B]!ped-up! | %104
!f! (3[A,A][G,G][F,F] (3[=E,=E]!ped-up![K:treble]!ped![E=e][Dd](3[^C^c][B,B][A,A] (3[B,B]!ped-up!!ped![G,G][B,B][K:bass]!ped-up!!ped! (3[F,F][G,G]!ped-up!!ped![E,E] (3[G,G]!ped-up!!ped![D,D][E,E] | %105
!ped! (3[^C,^C][=E,=E]!ped-up!!ped![B,,B,] (3[C,C]!ped-up!!ped![A,,A,][B,,B,]!ped-up!!ped! (3[G,,G,][B,,B,]!ped-up!!ped![F,,F,] (3[G,,G,]!ped-up!!ped![=E,,E,][G,,G,]!ped-up!!ped! (3[D,,D,][E,,E,]!ped-up!!ped![^C,,C,] (3[E,,E,]!ped-up!!ped![B,,,B,,][C,,C,]!ped-up!!ped! (3[A,,,A,,][B,,,B,,]!ped-up!!ped![^G,,,^G,,]!<(! (3[A,,,A,,]!ped-up!!ped![=G,,,=G,,][A,,,A,,]!ped-up!!ped! (3[^F,,,^F,,][A,,,A,,]!ped-up!!ped![=F,,,=F,,] (3[A,,,A,,]!ped-up!!ped![!courtesy!=E,,,E,,][A,,,A,,]!ped-up!!ped! [_E,,,_E,,][A,,,A,,]!ped-up!!ped! [=C,,,=C,,][A,,,A,,]!ped-up!!ped! [^C,,,^C,,][A,,,A,,]!<)! || %106
[K:F][M:6/8]!ped! !wedge![D,,A,,D,] ([D,F,]/[E,G,]/!ff!.[F,A,])!ped-up!!ped! !wedge![D,,A,,D,] ([D,F,]/[E,G,]/.[F,A,]) | x20!ped-up! %107
!ped! !wedge![D,,A,,D,] ([E,G,]/[F,A,]/.[G,B,])!ped-up!!ped! !wedge![D,,A,,D,] ([E,G,]/[F,A,]/.[G,B,])!ped-up! | %108
!ped! !wedge![^C,,A,,^C,] ([C,E,]/[D,F,]/.[E,G,])!ped-up!!ped! !wedge![C,,A,,C,] ([C,E,]/[D,F,]/.[E,G,])!ped-up! | %109
!ped! !wedge![D,,A,,D,] ([D,F,]/[E,G,]/.[F,A,])!ped-up!!ped! !wedge![D,,A,,D,] ([D,F,]/[E,G,]/.[F,A,])!ped-up! | %110
!ped! !wedge![=C,,G,,=C,] ([C,E,]/[D,F,]/.[E,G,])!ped-up!!ped! !wedge![E,,C,E,] ([E,G,]/[F,A,]/.[G,B,])!ped-up! | %111
!ped! !wedge![F,,C,F,] ([F,A,]/[G,B,]/.[A,C])!ped-up!!ped! !wedge![A,,F,A,] ([F,A,]/[G,B,]/.[A,C])!ped-up! | %112
!ped! !wedge![E,,=B,,E,] ([E,^G,]/[^F,A,]/.[G,=B,])!ped-up!!ped! !wedge![^G,,E,G,] ([G,B,]/[A,C]/.[B,E])!ped-up! | %113
!ped! !wedge![A,,E,A,] ([A,^C]/[=B,D]/.[CE])!ped-up!!ped! !wedge![A,,E,A,] ([A,C]/[B,D]/.[CE])!ped-up! | %114
!ped! !wedge![_B,,_B,] ([^CE]/[DF]/.[EG])!ped-up!!ped! !wedge![A,,A,] ([EG]/[DF]/.[CE])!ped-up! | %115
!ped! !wedge![B,,B,] ([=C_E]/[DF]/.[E^F])!ped-up!!ped! !wedge![A,,A,] ([EF]/[D=F]/.[CE])!ped-up! | %116
!ped! !wedge![=B,,D,F,^G,=B,] ([B,D]/[^CE]/.[DF])!ped-up!!ped! !wedge![E,,B,,E,] ([E,G,]/[^F,A,]/.[G,B,])!ped-up! | %117
!ped! !wedge![A,,E,A,] ([A,^C]/[=B,D]/.[CE])!ped-up!!ped! !wedge![A,,E,A,] ([^C,E,]/[=B,,D,]/.[A,,C,])!ped-up! | %118
!ped! !wedge![_B,,,^C,,E,,G,,_B,,] ([^C,E,]/[D,F,]/.[E,G,])!ped-up!!ped! !wedge![A,,,A,,] ([E,G,]/[D,F,]/.[C,E,])!ped-up! | %119
!ped! !wedge![B,,,C,,_E,,^F,,B,,] ([C,_E,]/[D,F,]/.[E,^F,])!ped-up!!ped! !wedge![A,,,A,,] ([E,F,]/[D,=F,]/.[C,E,])!ped-up! | %120
!ped! !wedge![=B,,,D,,F,,^G,,=B,,] ([B,,D,]/[^C,E,]/.[D,F,])!ped-up!!ped! !wedge![_B,,,D,,E,,_B,,] ([D,E,]/F,/.[D,E,])!ped-up! | %121
!ped! [A,,,E,,A,,]!f!!ped-up!!ped! [B,,G,B,]/[B,,G,B,]/ [^C,B,^C]!ped-up!!ped! [E,CE]/[E,CE]/ !wedge![G,EG]!ped-up!!ped! !wedge!!^![D,F,^G,D]!ped-up! | %122
!ped! !^![A,,^C,E,A,][K:treble]!ped-up!!ped! [B,GB]/[B,GB]/ [^CB^c]!ped-up!!ped! [Ece]/[Ece]/ !wedge![Geg]!ped-up!!ped! !wedge![DF^Gd]!ped-up! | %123
!ped! [A,^CEA][K:bass]!ped-up!!ped! [D,F,^G,D]/[D,F,G,D]/ !wedge![A,,^C,E,A,]!ped-up!!ped! [D,,F,,^G,,D,]/[D,,F,,G,,D,]/ !wedge![A,,,^C,,E,,A,,]!ped-up!!ped! [D,,F,,G,,D,]/[D,,F,,G,,D,]/!ped-up! | %124
 !wedge![A,,,^C,,E,,A,,]!f!!ped! ([^G,,^G,]/[A,,A,]/.[B,,B,])!ped-up!!ped! ([A,,A,]/[B,,B,]/.[=B,,=B,])!ped-up!!ped! ([_B,,_B,]/[=B,,=B,]/!ped-up! | %125
 .[C,C])!ped-up!!ped! ([A,,A,]/[B,,B,]/.[=B,,=B,])!ped-up!!ped! ([_B,,_B,]/[=B,,=B,]/.[C,C])!ped-up!!ped! ([B,,B,]/[C,C]/ | %126
.[^C,^C])!ped-up!!ped! ([B,,B,]/[=B,,=B,]/.[=C,=C])!ped-up!!ped! ([B,,B,]/[C,C]/.[^C,^C])!ped-up!!ped! ([^B,,^B,]/[C,C]/) || %127
[M:2/4]!fff! !wedge![D,,D,]({[D,^F,][E,G,])}!wedge![F,A,] !wedge![D,,D,]({[D,F,][E,G,])}!wedge![F,A,] | %128
 !wedge![D,,D,]({[E,G,][^F,A,])}!wedge![G,B,] !wedge![D,,D,]({[E,G,][F,A,])}!wedge![G,B,] | %129
 !wedge![^C,,^C,]({[C,E,][D,^F,])}!wedge![E,G,] !wedge![A,,,A,,]({[C,E,][D,F,])}!wedge![E,G,] | %130
 !wedge![D,,D,]({[D,^F,][E,G,])}!wedge![F,A,] !wedge![D,,D,]({[E,G,][F,A,])}!wedge![G,B,] | %131
 !wedge![^C,,^C,]({[C,^E,][^D,^F,])}!wedge![E,^G,] !wedge![^E,,^E,]({[E,G,][F,A,])}!wedge![G,=B,] | %132
 !wedge![^F,,^F,]({[F,A,][^G,=B,])}!wedge![A,^C] !wedge![F,,F,]({[F,A,][G,B,])}!wedge![A,=C] | %133
 !wedge![E,,E,]({[E,^G,][^F,A,])}!wedge![G,=B,] !wedge![^G,,G,]({[G,B,][A,^C])}!wedge![B,D] | %134
 !wedge![A,,A,]({[A,^C][=B,D])}!wedge![CE] !wedge![A,,A,]({[A,C][B,D])}!wedge![CE] | %135
 !wedge![A,,A,]({[^B,^D][^^C^E])}!wedge![D^F] !wedge![A,,A,]({[CE][CF])}!wedge![DF] | %136
 !wedge![A,,A,]({[A,^C][=B,D])}!wedge![CE] !wedge![A,,A,]({[A,C][B,D])}!wedge![CE] | %137
 !wedge![A,,A,]({[=C_E][DF])}!wedge![E_G] !wedge![A,,A,]({[CE][DF])}!wedge![EG] | %138
 !wedge![B,,B,]({[B,D][C_E])}!wedge![DF] !wedge![B,,B,]({[B,D][CE])}!wedge![DF] | %139
 !wedge![B,,B,]({[^CE][_E^F])}!wedge![=EG] !wedge![^A,,^A,]({[DF][^DF])}!wedge![EG] | %140
 !wedge![=B,,=B,]({[B,^D][^CE])}!wedge![=D^F] !wedge![B,,B,]>[B,,B,] | %141
 !wedge![C,C]2 !wedge![^C,^C]>[K:treble][K:bass][C,C] | !wedge![D,D]2 !wedge![A,,A,]2 | %143
 !wedge![F,F]2 !wedge![D,D]2 | !wedge![B,,B,]2 !wedge![F,,F,]2 | !wedge![D,D]2 !wedge![B,,B,]2 | %146
 !wedge![_E,,_E,]2 !wedge![B,,,B,,]2 | !wedge![A,,A,]2 !wedge![F,,F,]2 | [E,,,E,,]2 [A,,,A,,]2 | %149
!fff!!ped! [D,,A,,D,] z z7/4!fff! [D,,D,]/4 | x2!ped-up! %150
!ped! [F,,^G,,=B,,D,F,] z z7/4!fff! [D,,D,]/4!ped-up! | %151
!ped! [F,,^G,,=B,,D,F,] z z7/4!fff! [D,,D,]/4!ped-up! | %152
!ped! !arpeggio![_B,,D,E,=G,_B,]z/>[B,,B,]/!ped-up!!ped! !arpeggio![A,,B,,D,E,A,]z/>!fff![G,,G,]/!ped-up! | %153
!ped! [D,,^F,,A,,D,]2 z7/4!fff! [D,,D,]/4!ped-up! | %154
!ped! !^![_E,,^F,,A,,C,_E,]15/4!fff! [D,,D,]/4!ped-up! | %155
!ped! !^![=B,,,D,,=F,,^G,,=B,,]15/4!fff! [D,,D,]/4!ped-up! | %156
!ped! !arpeggio![_B,,,^C,,E,,G,,_B,,]z/>[B,,,B,,]/!ped-up!!ped! !arpeggio![G,,,B,,,C,,E,,G,,]z/>[G,,,G,,]/!ped-up! | %157
 [D,,^F,,A,,D,]!ped!"^trem."!8vb(! !///-![D,,,E,,,G,,,B,,,]3/2!ped-up!!ped! ^C,,3/2!ped-up!!ped!!ped-up! | %158
!ped! [D,,,E,,,G,,,B,,,^C,,]!ped-up!!ped!!8vb)! ([B,,B,]/[^C,E,]/)!ped-up!!ped!([A,,A,]/[C,E,]/)!ped-up!!ped!([G,,G,]/[C,E,]/)!ped-up! | %159
 [D,^F,A,D]!ped!"^trem." !///-![D,,E,,G,,B,,]3/2!ped-up!!ped! ^C,3/2!ped-up!!ped!!ped-up! | %160
!ped! [D,,E,,G,,B,,^C,]!ped-up!!ped! ([B,,,B,,]/[^C,,E,,]/)!ped-up!!ped!([A,,,A,,]/[C,,E,,]/)!ped-up!!ped!([G,,,G,,]/[C,,E,,]/)!ped-up! | %161
 !wedge![D,,^F,,A,,D,] [G,,B,,^C,E,G,]/[G,,B,,C,E,G,]/ !wedge![D,^F,A,D] [G,,B,,C,E,G,]/[G,,B,,C,E,G,]/ | %162
 !wedge![D,,^F,,A,,D,] [G,,B,,^C,E,G,]/[G,,B,,C,E,G,]/ !wedge![D,^F,A,D] [G,,B,,C,E,G,]/[G,,B,,C,E,G,]/ | %163
 !wedge![D,,^F,,A,,D,] [G,,,^C,,E,,G,,]/[G,,,C,,E,,G,,]/ !wedge![D,,F,,A,,D,] [G,,,C,,E,,G,,]/[G,,,C,,E,,G,,]/ | %164
 !wedge![D,,^F,,A,,D,] z z3/2!ped! [D,D]/!ped-up! |[D,D] z/ [D,,D,]/[D,,D,] z/ [D,,,D,,]/ | %166
 [D,,,D,,]2!ped-up!!ped! [B,,,B,,]2 | [G,,,G,,]2 [D,,,D,,]2 | !fermata!!stemless![D,,,D,,A,]8 |] %169
V:4
 (3z!<(! [D,F,][E,G,] (3[F,A,] z z x2!<)! (3z [D,F,][E,G,] (3[F,A,] z z x2 | %1
 (3z!<(! [E,G,][F,A,] (3[G,B,] z z x2!<)! (3z [E,G,][F,A,] (3[G,B,] z z x2 | %2
 (3z!f!!<(! [^C,E,][D,F,] (3[E,G,] z z x4/3!<)! x2/3 (3z!f!!<(! [C,E,][D,F,] (3[E,G,] z z x4/3!<)! x2/3 | %3
 (3z!<(! [D,F,][E,G,] (3[F,A,] z z x4/3!<)! x2/3 (3z!<(! [D,F,][E,G,] (3[F,A,] z z x4/3!<)! x2/3 | %4
 (3z!f! [C,E,]!<(![D,F,] (3[E,G,] z z x2!<)! (3z!f! [E,G,]!<(![F,A,] (3[G,C] z z x2!<)! | %5
 (3z!ff!!f! [F,A,]!<(![G,B,] (3[A,C] z z x2!<)! (3z!f! [F,A,]!<(![A,C] (3[CF] z z x2!<)! | %6
 (3z!f! [E,^G,]!<(![^F,A,] (3[G,=B,] z z x2!<)! (3z!f! [G,B,]!<(![A,C] (3[B,E] z z x2!<)! | %7
 (3z!f! [A,^C]!<(![=B,D] (3[CE] z z x2!<)! (3z!f! [A,C]!<(![CE] (3[EA] z z x2!<)! | %8
 (3z!f! [^CE]!<(![DF] (3[EG] z z x2!<)! (3z!f!!<(! [EG][DF] (3[CE] z z x2!<)! | %9
 (3z!f!!<(! [C_E][DF] (3[E^F] z z x2!<)! (3z!f!!<(! [EF][D=F] (3[CE] z z x2!<)! | %10
 (3z!f!!<(! [=B,D][^CE] (3[DF] z z x2!<)! (3z!f! [E,^G,]!<(![^F,A,] (3[G,B,] z z x2!<)! | %11
 (3z!f! [A,^C]!<(![=B,D] (3[CE] z z x2!<)! (3x!f! [A,,^C,]!<(![=B,,D,] (3[C,E,] z z x2!<)! | %12
 (3z!f! [^C,E,]!<(![D,F,] (3[E,G,] z z x2!<)! (3z!f! [E,G,]!<(![D,F,] (3[C,E,] z z x2!<)! | %13
 (3z!f! [C,_E,]!<(![D,F,] (3[E,^F,] z z x2!<)! (3z!f! [E,F,]!<(![D,=F,] (3[C,E,] z z x2!<)! | %14
 (3z!f! [=B,,D,]!<(![^C,E,] (3[D,F,] z z x2!<)! (3z!f! [D,E,]!<(![D,F,] (3[D,E,^G,] z z x2!<)! | %15
 x2 (3[B,,B,][E,G,]B, (3[^C,^C][G,B,]C (3[E,E][B,C]E (3[G,G][B,CE]G x2 | %16
 x2[K:treble] (3[B,B][EG]B (3[^C^c][GB]c (3[Ee][Bc]e (3[Gg][Bce]g x2 | x2[K:bass] x10 | x12 | x12 | %20
 x12 | x2/3[K:treble] x16/3[K:bass] x6 | x12 | x12 ||[M:4/4] x6 x x | x6 x x | x2 x x3 x x | %27
 x2 x x3 x x | x6 x x | x2 x x3 x x | x6 x x | x2 x x3 x x | %32
 (3z [=B,D][C_E](3[DF][CE][B,D] (3z [B,D][CE](3[DF][CE][B,D] | %33
 (3z [_A,C][B,_D](3[C_E][B,D][A,C] (3z [A,C][B,D](3[CE][B,D][A,C] | %34
 (3z [=B,D][C_E](3[DF][CE][B,D] (3z [B,D][CE](3[DF][CE][B,D] | %35
 (3z [_A,C][B,_D](3[C_E][B,D][A,C] (3z [=B,=D][^C=E](3[DF][CE][B,D] | %36
 (3z [DF]A, (3z [A,D]F, (3z [F,A,]D, (3z [D,F,]A,, | %37
 (3z [E,G,]D, (3z [D,E,]B,, (3z [B,,D,]G,, (3z [E,G,]^C, | x14/3[K:treble] x8/3[K:bass] x2/3 | %39
 (3z!<(! [D,^F,][E,G,] (3[F,A,] [D^F][EG] (3[FA][K:treble] [d^f][eg] (3!^![fa]!<)! z[K:bass] [D,,D,] | %40
 (3z!<(! [D,F,][E,G,] (3[F,^G,] [DF][EG] (3[F^G][K:treble] [df][eg] (3!^![f^g]!<)! z[K:bass] [D,,D,] | %41
 (3z [^C,E,][D,F,](3[E,G,][D,F,][C,E,] (3z [C,E,][D,F,](3[E,G,][D,F,][C,E,] | %42
 (3z!<(! [D,^F,][E,G,] (3[F,A,][K:treble] [D^F][EG] (3[FA] [d^f][eg] (3!^![fa]!<)! z[K:bass] [D,,D,] | %43
 (3z!<(! [^F,A,][G,B,] (3[A,C][K:treble] [^FA][GB] (3[Ac] [^fa][gb] (3!^![ac']!<)! z[K:bass] [D,,D,] | %44
 (3z!<(! [F,^G,][=G,^A,] (3[^G,=B,][K:treble] [F^G][=G^A] (3[^G=B] [f^g][=g^a] (3!^![^g=b]!<)! z[K:bass] [D,,D,] | %45
 (3z [^C,E,][D,F,](3[E,G,][D,F,][C,E,] (3z [C,E,][D,F,](3[E,G,][D,F,][C,E,] | x2!8vb(! x6 | %47
 x!8vb)! x (3[B,,B,][^C,E,]B, (3[A,,A,][C,E,]A, (3[G,,E,][C,E,]G, | x8 | %49
 x2 (3[B,,,B,,][^C,,E,,]B,,, (3[A,,,A,,][C,,E,,]A,,, (3[G,,,E,,][C,,E,,]G,, | x8 | x8 | x8 | x8 | %54
 x8 | x8 ||[K:Bb] !arpeggio!!wedge![B,,F,B,]z!wedge!D,z!arpeggio!!wedge!F,z!wedge!D, z | %57
 !arpeggio!!wedge![B,,D,F,]z!wedge!D,z!wedge!F,z!wedge!D, z | %58
 !arpeggio!!wedge![B,,E,_G,]z!wedge!E,z!arpeggio!!wedge![G,A,]z!wedge!E, z | %59
 !arpeggio!!wedge![B,,D,F,]z!wedge!D,z!wedge!F,z!wedge!D, z | %60
{/G,,} !wedge![G,B,]z!wedge!D,z!wedge![G,B,]z!wedge!D, z | %61
 !arpeggio!!wedge![G,,D,]z!wedge!B,,z!arpeggio!!wedge![D,G,]z!wedge!B,, z | %62
 !arpeggio!!wedge![C,G,!courtesy!_B,]z!wedge!=E,z!arpeggio!!wedge![G,C]z!wedge!C, z | %63
 !arpeggio!!wedge![F,A,C]z!wedge!C,z!wedge!F,z!wedge!C, z | %64
 !arpeggio!!wedge![_D,_A,]z!wedge!F,z!wedge!A,z!wedge!D, z | %65
 !wedge!_A,z!wedge!E,z!wedge!A,z!wedge!_A,, z | %66
 !arpeggio!!wedge![C,G,]z!wedge!E,z!wedge!G,z!wedge!C, z | %67
 !wedge!G,z!wedge!D,z!wedge!G,z!wedge!G,, z | !wedge![B,,F,_B,]z!wedge!D,z!wedge!F,z!wedge!D, z | %69
 !wedge![G,,D,]z!wedge!B,,z!arpeggio!!wedge![D,G,]z!wedge!G,, z | %70
 !wedge![E,G,]z!arpeggio!!wedge!E,, z !wedge![E,G,]z!wedge![E,G,] z | %71
 !arpeggio!!wedge![D,^F,A,]z!wedge!D,,z!wedge!D,z!wedge!D z |[K:treble] x8 | %73
[K:bass] (3z [D,B,][F,C](3[B,D][B,D][CE][K:treble] (3[B,DB][B,DB][B,DB](3[B,DB][B,DB] z | %74
[K:bass] (3z [D,B,][F,C](3B,[B,D][CE] (3[B,DF][B,DF][B,DF](3[B,DF][B,DF] z | %75
 (3z [E,C][_G,D](3C[CE][DF][K:treble] (3[CE_GA][CEGA][CEGA](3[CEGA][CEGA] z | %76
[K:bass] (3z [D,B,][F,C](3B,[B,D][CE] (3[DF][DF][DF](3[DF][DF][DF] | %77
 (3z [D,B,][G,C](3[B,D][K:treble][B,G][DA] (3[B,DGB][B,DGB][B,DGB](3[B,DGB][B,DGB] z | %78
[K:bass] (3z [B,,G,][D,A,](3[G,B,][G,B,][A,C] (3[G,B,DG][G,B,DG][G,B,DG](3[G,B,DG][G,B,DG] z | %79
 (3z [=E,C][G,D](3[C=E][CE][DF][K:treble] (3[CEGB][CEGB][CEGB](3[CEGB][CEGB] z | %80
[K:bass] (3z [A,,F,][C,G,](3[F,A,][F,A,][G,B,] (3[F,A,CF][F,A,CF][F,A,CF](3[F,A,CF][F,A,CF][F,A,CF] | %81
 (3z [_D,F,][E,_G,](3[F,_A,][F,_D][A,E] (3[F,A,DF][F,A,DF][F,A,DF](3[F,A,DF][F,A,DF][F,A,DF] | %82
 (3z _A,[E,_D-](3[A,DE]D[A,E-] (3[CE_A][A,CEA][A,CEA](3[A,CEA][A,CEA][A,CEA] | %83
 (3z [=E,^G,][^F,A,](3[G,=B,][G,=E][B,^F] (3[G,B,E^G][G,B,EG][G,B,EG](3[G,B,EG][G,B,EG][G,B,EG] | %84
 (3z =B,[^F,=E-](3[B,E^F][K:treble]=E[=B,^F] (3[^DF=B][B,DFB][B,DFB](3[B,DFB][B,DFB][B,DFB] | %85
[K:bass] (3z!<(! [^G,=B,][^A,^C](3[B,=D][K:treble][^E^G][^^F^A]!<)! (3[=B,^^CEG=B][B,CEGB][B,CEGB](3[B,CEGB][B,CEGB][B,CEGB] | %86
[K:bass] (3z [^G,=B,][^A,^C](3[B,^D][K:treble][B,^G][^D^A] (3[=B,DG=B][B,DGB][B,DGB](3[B,DGB][B,DGB][B,DGB] | %87
[K:bass] (3z!<(! [_A,=B,][_B,^C](3[=B,D][K:treble][F_A][G_B]!<)! (3[=B,DFA=B]!<(![B,DFAB][B,DFAB](3[B,DFAB][B,DFAB]!<)![B,DFAB] | %88
[K:bass] (3z [E,C][G,D](3[CE][K:treble][Ec][Gd] (3[EGce][EGce][EGce](3[EGce][EGce][EGce] | %89
[K:bass] (3z [D,=B,][F,C](3[B,D][B,D][CE] (3[G,B,DFG][G,B,DFG][G,B,DFG](3[G,B,DFG][G,B,DFG][G,B,DFG] | %90
 x10/3[K:treble] x14/3 |[K:bass] !wedge![C,F,_A,]z!wedge!_A,,z!wedge![F,A,]z!wedge!A,, z | %92
 !arpeggio!!wedge![C,G,C]z!wedge!G,,z!wedge!C,,z!wedge![E,G,] z | %93
 !arpeggio!!wedge![C,F,_A,]z!wedge!_A,,z!wedge![F,A,]z!wedge!A,, z | %94
 [C,G,]2 x2 !arpeggio![F,,C,_A,]2 z2 | [C,,G,,]2 x2 !arpeggio![F,,,C,,^G,,]2 z2 | %96
 x2 (3z [E,G,][E,G,] (3z [F,_A,][F,A,] (3z [F,A,][F,A,] | %97
 (3z [G,B,][G,B,] (3z [^G,=B,][G,B,] (3z [G,B,][G,B,] (3z [G,B,][G,B,] | %98
 (3z [=B,D][B,D] (3z [B,D][B,D][I:staff -1] (3[A,A][^CE][I:staff +1] z[I:staff -1] (3[!courtesy!_B,B][DF][I:staff +1] z | %99
[I:staff -1] (3[=B,=B][^D^F][I:staff +1] z[I:staff -1] (3[Cc][=EG][I:staff +1] z x4 | x8 | x8 | %102
 x8 | x8 | x8/3[K:treble] x16/3[K:bass] x4 | x26 ||[K:F][M:6/8] x6 | x6 | x6 | x6 | x6 | x6 | x6 | %113
 x6 | x6 | x6 | x6 | x6 | x6 | x6 | x6 | x6 | x[K:treble] x5 | x[K:bass] x5 | x6 | x6 | x6 || %127
[M:2/4] x4 | x4 | x4 | x4 | x4 | x4 | x4 | x4 | x4 | x4 | x4 | x4 | x4 | %140
 x2 =B,,({[D=F][EG])}!wedge![F_A] | %141
 C,({[CE][DF])}!wedge![EG] ^C,[K:treble]({[EG][FA])}!wedge![GB][K:bass] | %142
 D,({[DF][EG])}!wedge![FA] A,,({[A,D][^CE])}!wedge![DF] | %143
 F,{[F,A,][F,-A,-^C]}!wedge![F,A,D] D,({[D,F,][E,G,])}!wedge![F,A,] | %144
 B,,({[B,D][C_E])}!wedge![DF] F,,({[F,B,][A,C])}!wedge![B,D] | %145
 D,{[D,F,][D,-F,-A,]}!wedge![D,F,B,] B,,({[B,,D,][C,_E,])}!wedge![D,F,] | %146
 _E,,({[_E,G,][F,A,])}!wedge![G,B,] B,,,({[B,,E,][D,F,])}!wedge![E,G,] | %147
 A,,({[D,F,][=E,G,])}!wedge![F,A,] F,,({[A,,D,][^C,E,])}!wedge![D,F,] | %148
 E,,,!arpeggio![G,,B,,D,E,] A,,,[A,,^C,E,A,] | x4 | x4 | x4 | x4 | x4 | x4 | x4 | x4 | x!8vb(! x3 | %158
 x!8vb)! x3 | x4 | x4 | x4 | x4 | x4 | x4 | x4 | x4 | x4 | x8 |] %169

